X: 3277
T: Belfast, The
R: polka
M: 2/4
K: Gmajor
"G" D/D/D/D/ ED|"G" B/B/B/B/ cB|"D" A/A/A/A/ BA|"C" GE"G" D z|
"G" D/D/D/D/ ED|"G" B/B/B/B/ cB|"D" A/A/A/A/ BF|"D" AG"G" G z:|
"D" fg/f/ "A7" e/g/f/e/|"D" dA FA|"A" GE "G"GB|"D" AD FA|
"D" fg/f/ "A7" e/g/f/e/|"D" dA FA|"D" fg/f/ "A7" e/g/f/e/|"D" dd d z:|

